24x24/apps/com.github.alonsoenrique.quotes.svg

<svg xmlns="http://www.w3.org/2000/svg" width="24" height="24" version="1">
 <path style="opacity:0.2" d="m 3.11105,3.5001 c -0.61555,0 -1.1111,0.63445 -1.1111,1.25 l 0,12.5 c 0,0.6155 0.49558,1.2434 1.1111,1.25 l 9.3889,0 2.5,3 2.5,-3 3.3889,0 c 0.616,0 1.111,-0.634 1.111,-1.25 l 0,-12.5 c 0,-0.6155 -0.495,-1.2499 -1.111,-1.2499 z"/>
 <path style="fill:#8e8e8e" d="m 3.11105,3.0001 c -0.61555,0 -1.1111,0.63445 -1.1111,1.25 l 0,12.5 c 0,0.6155 0.49558,1.2434 1.1111,1.25 l 9.3889,0 2.5,3 2.5,-3 3.3889,0 c 0.616,0 1.111,-0.634 1.111,-1.25 l 0,-12.5 c 0,-0.6155 -0.495,-1.2499 -1.111,-1.2499 z"/>
 <path style="opacity:0.1;fill:#f4f4f7" d="m 3.11135,3.0001 c -0.6156,0 -1.1113,0.63445 -1.1113,1.25 l 0,0.5 c 0,-0.61555 0.49575,-1.25 1.1113,-1.25 l 17.777,0 c 0.6155,0 1.1115,0.63445 1.1115,1.25 l 0,-0.5 c 0,-0.61555 -0.496,-1.25 -1.1115,-1.25 l -17.777,0 z"/>
 <path style="opacity:0.2;fill:none;stroke:#000000;stroke-width:1.999874;stroke-linecap:round" d="m 16.042873,14.493639 -1.999875,-0.99994 M 12.043126,6.4941398 c 2.399528,0 1.999875,1.9998754 1.999875,3.9997472 0,1.999876 0.355556,4.060848 -1.999875,3.999752 -2.3484394,0 -1.999872,-1.999876 -1.999872,-3.999752 0,-1.9998718 -0.4354231,-3.9997472 1.999872,-3.9997472"/>
 <path style="fill:none;stroke:#f4f4f7;stroke-width:1.999874;stroke-linecap:round" d="m 16.042873,13.993639 -1.999875,-0.99994 M 12.043126,5.9941407 c 2.399528,0 1.999875,1.9998754 1.999875,3.999747 0,1.9998753 0.355556,4.0608473 -1.999875,3.9997513 -2.3484394,0 -1.999872,-1.999876 -1.999872,-3.9997513 0,-1.9998716 -0.4354231,-3.999747 1.999872,-3.999747"/>
</svg>

<svg xmlns="http://www.w3.org/2000/svg" width="24" height="24" version="1"><path style="opacity:.2" d="M3.111 3.5C2.495 3.5 2 4.135 2 4.75v12.5c0 .616.496 1.243 1.111 1.25H12.5l2.5 3 2.5-3h3.389c.616 0 1.11-.634 1.11-1.25V4.75c0-.615-.494-1.25-1.11-1.25z"/><path style="fill:#8e8e8e" d="M3.111 3C2.495 3 2 3.635 2 4.25v12.5c0 .616.496 1.243 1.111 1.25H12.5l2.5 3 2.5-3h3.389c.616 0 1.11-.634 1.11-1.25V4.25C22 3.635 21.506 3 20.89 3z"/><path style="opacity:.1;fill:#f4f4f7" d="M3.111 3C2.496 3 2 3.635 2 4.25v.5c0-.615.496-1.25 1.111-1.25h17.777c.616 0 1.112.635 1.112 1.25v-.5C22 3.635 21.504 3 20.888 3H3.111z"/><path style="opacity:.2;fill:none;stroke:#000;stroke-width:1.999874;stroke-linecap:round" d="m16.043 14.494-2-1m-2-7c2.4 0 2 2 2 4s.356 4.06-2 4c-2.348 0-2-2-2-4s-.435-4 2-4"/><path style="fill:none;stroke:#f4f4f7;stroke-width:1.999874;stroke-linecap:round" d="m16.043 13.994-2-1m-2-7c2.4 0 2 2 2 4s.356 4.06-2 4c-2.348 0-2-2-2-4s-.435-4 2-4"/></svg>
